packages/icons/src/git-clone-ci-step-inverse.svg

<svg viewBox="0 0 40 41" xmlns="http://www.w3.org/2000/svg"><path clip-rule="evenodd" d="m13.1687 4.20398c0-.73578.5991-1.32736 1.3321-1.32736h18.4171c.733 0 1.3321.59158 1.3321 1.32736v23.13942c0 .7358-.5991 1.3274-1.3321 1.3274h-3.9543v-1h3.9543c.1861 0 .3321-.1493.3321-.3274v-23.13942c0-.17809-.146-.32736-.3321-.32736h-18.4171c-.1861 0-.3321.14926-.3321.32736v3.28304h11.6825c.5523 0 1 .44771 1 1v23.51068c0 .5523-.4477 1-1 1h-5.1528v-1h5.1528v-5.4079h-16.37888c-1.50621 0-2.72232 1.2133-2.72232 2.7039s1.21611 2.7039 2.72232 2.7039h.92988v1h-.92988c-2.05307 0-3.72232-1.6556-3.72232-3.7039 0-.1598.01016-.3172.02986-.4716h-.02986v-20.33508c0-.55229.44772-1 1-1h6.4187zm-6.4187 22.56362c.67989-.725 1.64861-1.1778 2.72232-1.1778h16.37888v-17.10278h-19.1012zm6.4187 4.2462c0-.5523.4477-1 1-1h3.4725c.5523 0 1 .4477 1 1v5.8628c0 .1817-.0986.3491-.2574.4372-.1589.0882-.3531.0832-.5073-.013l-1.994-1.2441-1.9448 1.2414c-.154.0982-.3492.1048-.5093.017-.1602-.0878-.2597-.2559-.2597-.4385zm4.4725 0h-3.4725v4.9505l1.7077-1.0901 1.7648 1.1011z" fill="#fff" fill-rule="evenodd"/></svg>

<svg viewBox="0 0 40 41" xmlns="http://www.w3.org/2000/svg">
<path fill-rule="evenodd" clip-rule="evenodd" d="M13.1687 4.20398C13.1687 3.4682 13.7678 2.87662 14.5008 2.87662H32.9179C33.6509 2.87662 34.25 3.4682 34.25 4.20398V27.3434C34.25 28.0792 33.6509 28.6708 32.9179 28.6708H28.9636V27.6708H32.9179C33.104 27.6708 33.25 27.5215 33.25 27.3434V4.20398C33.25 4.02589 33.104 3.87662 32.9179 3.87662H14.5008C14.3147 3.87662 14.1687 4.02588 14.1687 4.20398V7.48702H25.8512C26.4035 7.48702 26.8512 7.93473 26.8512 8.48702V31.9977C26.8512 32.55 26.4035 32.9977 25.8512 32.9977H20.6984V31.9977H25.8512V26.5898H9.47232C7.96611 26.5898 6.75 27.8031 6.75 29.2937C6.75 30.7843 7.96611 31.9976 9.47232 31.9976H10.4022V32.9976H9.47232C7.41925 32.9976 5.75 31.342 5.75 29.2937C5.75 29.1339 5.76016 28.9765 5.77986 28.8221H5.75V8.48702C5.75 7.93473 6.19772 7.48702 6.75 7.48702H13.1687V4.20398ZM6.75 26.7676C7.42989 26.0426 8.39861 25.5898 9.47232 25.5898H25.8512V8.48702L6.75 8.48702V26.7676ZM13.1687 31.0138C13.1687 30.4615 13.6164 30.0138 14.1687 30.0138H17.6412C18.1935 30.0138 18.6412 30.4615 18.6412 31.0138V36.8766C18.6412 37.0583 18.5426 37.2257 18.3838 37.3138C18.2249 37.402 18.0307 37.397 17.8765 37.3008L15.8825 36.0567L13.9377 37.2981C13.7837 37.3963 13.5885 37.4029 13.4284 37.3151C13.2682 37.2273 13.1687 37.0592 13.1687 36.8766V31.0138ZM17.6412 31.0138H14.1687V35.9643L15.8764 34.8742L17.6412 35.9753V31.0138Z" fill="white"/>
</svg>
